X:1
T:Title
%%score { ( 1 4 ) | ( 2 3 ) }
L:1/8
Q:1/4=100
M:4/4
K:G
V:1 treble nm="Grand Piano"
V:4 treble 
V:2 bass 
V:3 bass 
V:1
 [DGB]2 [DGB]2 [DFA]2 .[DFA]2 | z4 E2 z2 | [A,E]2 [CEA]2 [CFA]2 [CFB]2 | [G,B,G]6 z2 | %4
w: R.~S.~Thain * * *||||
 [B,EG]2 [B,EG]2 [B,^DF]2 [B,DF]2 | [B,EG]2 [A,B,F]2 [G,B,E]4 | z4 z2 [^DF]2 | E6 z2 | DDDD G2 G2 | %9
w: |||||
 B2 B2 d4 | e2 d2 c2 B2 | [EA]2 [EG]2 F4 | DDDD G2 G2 | B2 B2 d4 | e2 d2 c2 B2 | %15
w: ||||||
[M:9/8] [EA]3 [Fd]3 G3 |[M:1/4] gB |[M:4/4] dBGc [DB]2 [CA]2 | [B,G]6 z2 |] %19
w: ||||
V:2
 G,2 G,2 D,2 z C | E,2 E,2 z2 ^D2 | C,2 C,2 D,2 D,2 | G,,6 z2 | E,2 E,2 B,,2 B,,2 | E,2 E,2 E,4 | %6
 A,,2 A,,2 B,,2 B,,2 | [E,G,]6 z2 | [G,B,][G,B,][G,B,][G,B,] [G,B,D]2[K:treble] [G,B,D]2 | %9
 [G,DG]2 [G,DG]2 [G,B,G]4 | [CG]2 [B,DG]2 [A,DF]2 [G,DG]2 | [C,C]2 [^C,A,]2 [D,A,D]4 | %12
 [G,B,][G,B,][G,B,][G,B,][K:treble] [G,B,D]2 [G,B,D]2 | [G,DG]2 [G,DG]2 [G,B,G]4 | %14
 [CG]2 [B,DG]2 [A,DF]2 [G,DG]2 |[M:9/8][K:bass] [C,C]3 [D,C]3[K:treble] [G,B,]3 |[M:1/4] [G,CEG]2 | %17
[M:4/4] [G,B,DG]2 z E[K:bass] [D,,D,]4 | [G,,D,]6 z2 |] %19
V:3
 z4 z2 D,2 | z4 B,,4 | x8 | x8 | x8 | x8 | x8 | x8 | x6[K:treble] x2 | x8 | x8 | x8 | %12
 x4[K:treble] x4 | x8 | x8 |[M:9/8][K:bass] x6[K:treble] x3 |[M:1/4] x2 |[M:4/4] x4[K:bass] x4 | %18
 x8 |] %19
V:4
 x8 | [B,G]2 [B,EG]2 [B,F]4 | x8 | x8 | x8 | x8 | [A,CE]2 [A,EG]2 [A,EF]2 B,A, | x8 | x8 | x8 | %10
 x8 | x8 | x8 | x8 | x8 |[M:9/8] x9 |[M:1/4] x2 |[M:4/4] x8 | x8 |] %19

